icon-svg/peppers.svg

<svg xmlns="http://www.w3.org/2000/svg" viewBox="0 0 24 24"><path fill="#44739e" d="M21.887 15.395c-.2-.372-.379-.401-1.066-.17a3.2 3.2 0 0 1-1.469.13A10.2 10.2 0 0 1 12.32 12.4a12.5 12.5 0 0 1-2.822-4.612 4.1 4.1 0 0 0-1.142-1.801 2.5 2.5 0 0 0-1.211-.534c-.121 0-.1.065.129.401a3.26 3.26 0 0 1 .533 2.422 95 95 0 0 0-.041 2.825 7.7 7.7 0 0 0 .211 2.43 14 14 0 0 0 .46 1.372 1.82 1.82 0 0 0 .861 1.042 9.4 9.4 0 0 0 4.327 1.743 14.2 14.2 0 0 0 7.548-1.267c.827-.395.956-.581.714-1.026m-8.146 5.362a2.45 2.45 0 0 1-1.025-.339 10.43 10.43 0 0 1-5.772-8.752 17 17 0 0 1 .052-2.139 7.8 7.8 0 0 0 0-2.539 2.63 2.63 0 0 0-.985-1.34c-.436-.283-.436-.235.032-1.494a5.5 5.5 0 0 0 .331-1.201.52.52 0 0 0-.262-.569 1.67 1.67 0 0 0-1.701-.258c-.17.137-.194.242-.251 1.275a42 42 0 0 0-.067 1.532c-.008.387-.024.428-.25.516a2.9 2.9 0 0 0-1.074 1.187c-.847 1.68-1.016 4.981-.379 7.517a11 11 0 0 0 1.372 3.084 11.6 11.6 0 0 0 6.92 4.363 18 18 0 0 0 3.059.4c.453 0 .549-.032.719-.2a.524.524 0 0 0 .016-.801 1.08 1.08 0 0 0-.735-.242m-2.567-.291a7 7 0 0 1-.718-.242 8.95 8.95 0 0 1-5.605-6.411 12.4 12.4 0 0 1-.379-3.403 6.3 6.3 0 0 1 .8-3.673c.186-.226.332-.331.235-.177-.016.032-.1.401-.171.815a14.9 14.9 0 0 0 .453 7.089 10.27 10.27 0 0 0 4.804 5.634 4 4 0 0 1 .581.368"/></svg>

<?xml version="1.0" encoding="UTF-8"?>
<svg width="24px" fill="#44739e" height="24px" viewBox="0 0 24 24" version="1.1" xmlns="http://www.w3.org/2000/svg" xmlns:xlink="http://www.w3.org/1999/xlink">
            <path d="M 21.879,15.4 C 21.679,15.029 21.5,15 20.814,15.231 A 3.2,3.2 0 0 1 19.346,15.36 10.187,10.187 0 0 1 12.32,12.408 12.506,12.506 0 0 1 9.5,7.8 4.12,4.12 0 0 0 8.359,6 2.52,2.52 0 0 0 7.149,5.467 c -0.121,0 -0.1,0.065 0.129,0.4 a 3.257,3.257 0 0 1 0.533,2.42 C 7.787,8.932 7.77,10.198 7.77,11.11 a 7.694,7.694 0 0 0 0.21,2.428 13.554,13.554 0 0 0 0.46,1.371 1.821,1.821 0 0 0 0.86,1.041 9.432,9.432 0 0 0 4.324,1.742 14.187,14.187 0 0 0 7.542,-1.266 c 0.826,-0.395 0.955,-0.581 0.713,-1.026 z M 13.74,20.758 A 2.453,2.453 0 0 1 12.715,20.419 10.415,10.415 0 0 1 6.948,11.675 16.838,16.838 0 0 1 7,9.537 7.838,7.838 0 0 0 7,7 2.626,2.626 0 0 0 6.016,5.661 C 5.58,5.379 5.58,5.427 6.048,4.169 A 5.52,5.52 0 0 0 6.379,2.969 0.52,0.52 0 0 0 6.117,2.4 1.665,1.665 0 0 0 4.417,2.142 C 4.247,2.279 4.223,2.384 4.167,3.416 4.132,4.027 4.1,4.721 4.1,4.947 4.092,5.334 4.076,5.375 3.85,5.463 A 2.891,2.891 0 0 0 2.777,6.649 C 1.93,8.327 1.761,11.626 2.398,14.159 a 11.082,11.082 0 0 0 1.371,3.082 11.6,11.6 0 0 0 6.914,4.359 18.086,18.086 0 0 0 3.057,0.4 c 0.452,0 0.548,-0.032 0.718,-0.2 A 0.524,0.524 0 0 0 14.474,21 1.076,1.076 0 0 0 13.74,20.758 Z m -2.565,-0.291 a 6.865,6.865 0 0 1 -0.718,-0.242 8.935,8.935 0 0 1 -5.6,-6.405 12.361,12.361 0 0 1 -0.379,-3.4 6.291,6.291 0 0 1 0.8,-3.67 C 5.463,6.524 5.609,6.419 5.512,6.573 c -0.016,0.032 -0.1,0.4 -0.17,0.814 a 14.855,14.855 0 0 0 0.452,7.083 10.257,10.257 0 0 0 4.8,5.63 4.144,4.144 0 0 1 0.581,0.367 z"/>

</svg>
